X:1
T:Give Me Jesus
T:Mrs. Paul C. Curnick, 1909
T:Give Me Jesus
T:Public Domain
T:Public Domain
C:Mrs. Paul C. Curnick, 1909
Z:Public Domain
%%score 1 ( 2 3 )
L:1/8
M:3/4
K:Ab
V:1 treble 
V:2 bass 
V:3 bass 
V:1
 [Ec]>[DB] | [CA]3 [CE] [=B,=D][B,F] | [CE]4 [DG]>[DF] | [DE]3 [Ed] [Fd][Gd] | [Ec]4 [Ec]>[=D=B] | %5
w: 1.~Take the|world with all its|wealth, Take my|life with all its|health; Take my|
w: 2.~Take my|gold with all its|power, Take my|days— yes, ev- ery|hour; Take my|
w: 3.~Take my|hand with all its|might, Take my|pride with all its|blight; Take my|
w: 4.~Take my|time with all its|sin, Take my|soul, make pure with-|in; Take my|
 [Fd]3 [Ec] [FA][FB] | [=Ec]4 z2 | [DB]2 [Fd]2 [DG]2 | [CA]2 [CA]2 ||"^Refrain" [Ec]>[Fd] | %10
w: heart with all its|love,|But give me|Je- sus.||
w: eyes with all their|tears,|But give me|Je- sus.|Give me|
w: tongue with ev- ery|word,|But give me|Je- sus.||
w: joys and all I|have,|But give me|Je- sus.||
 [DB]2 [DE]2 [Ec]>[DB] | [CA]2 [CE]2 [CA][CA] | [DA]3 [DF] [FA][FB] | [=Ec]4 [Fd]>[Ec] | %14
w: ||||
w: Je- sus, bless- èd|Je- sus, He is|all the world to|me; Give me|
w: ||||
w: ||||
 [DB]2 [DE]2 [Ec]>[DB] | [CA]2 [CE]2 [DF][Fd] | [Ec][Ee] [Ec]3 [DB] | [CA]4 |] %18
w: ||||
w: Je- sus, on- ly|Je- sus, He is|all in all to|me.|
w: ||||
w: ||||
V:2
 [A,,A,]>[A,,A,] | [A,,E,]3 [A,,A,] [A,,A,][A,,A,] | [A,,A,]4 [E,B,]>[E,A,] | %3
 [E,G,]3 [E,G,] [E,A,][E,B,] | A,4 [A,,A,]>[A,,A,] | [A,,A,]3 [A,,A,] [D,A,][D,F,] | [C,G,]4 z2 | %7
 [E,G,]2 [E,G,]2 E,2 | [A,,E,]2 [A,,E,]2 || [A,,A,]>[A,,A,] | [E,G,]2 [E,G,]2 [E,G,]>[E,G,] | %11
 [A,,A,]2 [A,,A,]2 [A,,E,][A,,E,] | [D,F,]3 [D,A,] [D,A,][D,F,] | [C,G,]4 [E,G,]>[E,A,] | %14
 [E,G,]2 [E,G,]2 [E,G,]>[E,G,] | [A,,A,]2 [A,,A,]2 [D,A,][D,A,] | [E,A,][E,C] [E,A,]3 E, | %17
 [A,,E,]4 |] %18
V:3
 x2 | x6 | x6 | x6 | A,4 x2 | x6 | x6 | x4 E,2 | x4 || x2 | x6 | x6 | x6 | x6 | x6 | x6 | x5 E, | %17
 x4 |] %18

